!!!OTL: Witay Jesu przenaslodszy
**kern
*staff1
=1-
*clefF4
*k[]
*met(c|)
*M2/2
0r
=2
0r
=3
0r
=4
0r
=5
0E
=6
1G
1A
=7
0G
=8
1E
1F
=9
1G
1A
=10
1D
1E
=11
0AA
=12
!!linebreak:original
1AA
1C
=13
1BB
1AA
=14
1E
1AA
=15
0E
=16
0AA
=17
0AA
=18
0E
=19
1AA
1E
=20
1C
0D
=21
0AA
=22
!!linebreak:original
0E
=23
2C/
2D\
2E\
2F\
=24
0G
=25
1.C
2D\
=26
0E
=27
1AA
0D
1AA
=28
0E
=29
1E
1C
=30
0D
=31
!!linebreak:original
1E
1F
=32
1G
1C
=33
0D
=34
0AA
=35
1.E
2F\
=36
1G
1A
=37
1G
1A
=38
0E
=39
0AA
==
*-
!!title: @{OTL}, @{GTL}, ed. @{ENC}
!!!pag:
!!!GTL: Hymnbook D
!!!EFL: 
!!!YEM: Creative Commons CC/BY/NC/SA 4.0
!!!ENC: Marcin Konik
!!!END: 2015-0m-dd
!!!EED: Marcin Konik
!!!EEV: 
!!!ONB: Encoded in vim by Marcin Konik
!!!CharacterEncoding: utf-8
!!!RDF**kern: l=long note in original notation
!!!RDF**kern: i=editorial accidental
!!muse2ps: z14jc180F
!!!COM: Anonim
!!!CDT: [?]
!!!TXO: Polish
!!!ODT: 
!!!GTL: Hymnbook D
!!!ARL: Opactwo św. Wojciecha, Staniątki 
!!!voices:	1
